common/resources/fonts/svg/sort-za.svg

<?xml version="1.0" encoding="UTF-8" standalone="no"?>
<svg width="1024px" height="1024px" viewBox="0 0 1024 1024" version="1.1" xmlns="http://www.w3.org/2000/svg" xmlns:xlink="http://www.w3.org/1999/xlink">
    <!-- Generator: Sketch 39.1 (31720) - http://www.bohemiancoding.com/sketch -->
    <title>sort-za</title>
    <desc>Created with Sketch.</desc>
    <defs></defs>
    <g id="Page-1" stroke="none" stroke-width="1" fill="none" fill-rule="evenodd">
        <g id="sort-za" fill="#221F20">
            <path d="M758.718083,308.288106 L506.537692,308.288106 L506.537692,342.560295 L758.718083,342.560295 L758.718083,465.247593 L928.247157,322.643869 L758.718083,180.040145 L758.718083,308.288106 Z M921.126221,863.408894 L924.401068,862.402148 L924.645396,858.989209 C925.398382,848.431947 925.395525,836.235332 924.64111,827.158914 L924.246756,822.43792 L868.828681,824.090125 L868.500053,820.031726 C868.457189,819.493367 868.424326,818.847908 868.421468,818.081067 C869.171597,786.362156 869.900293,696.754661 869.900293,662.658117 C869.900293,602.324783 842.539887,537.855939 765.748146,537.855939 C706.63658,537.855939 664.227878,571.472673 630.542101,604.359695 L627.21153,607.609841 L630.21776,611.162724 C638.061962,620.424783 647.60217,630.777841 656.397964,639.570085 L660.085739,643.255774 L663.614916,639.417288 C691.193931,609.426267 722.214966,592.224484 748.728084,592.224484 C765.22377,592.224484 776.971499,596.404263 785.702996,605.382148 C799.176736,619.235253 805.590693,646.066093 805.307787,687.405493 L805.279211,691.680949 L801.001334,691.660957 C787.767636,691.598125 773.713797,691.355363 759.228456,690.942669 L759.01842,690.939813 C701.61429,690.939813 666.322523,710.269328 646.837753,726.484357 C623.645204,745.785312 609.797115,771.687947 609.797115,795.774156 C609.797115,816.664484 620.531813,836.546637 640.022298,851.757778 C657.260969,865.212468 679.366189,873.245012 699.152439,873.245012 C725.912743,873.245012 752.794496,867.988515 804.051857,841.825983 L807.492448,840.068105 L809.595665,843.309683 C818.278583,856.678693 824.472502,865.895056 831.217945,871.962661 L832.643904,873.245012 L834.562804,873.245012 C867.902808,873.245012 910.151482,866.786133 921.126221,863.408894 Z M803.664648,795.342898 L725.068312,824.054424 L724.30961,824.054424 C698.089399,824.054424 680.473521,810.014251 680.473521,789.118211 C680.473521,753.755024 712.364705,733.474456 767.967098,733.474456 C784.401345,733.474456 794.844564,733.902858 799.608238,734.157044 L803.664648,734.375529 L803.664648,795.342898 Z M331.700279,869.19204 C402.943926,869.19204 460.845284,869.761815 491.950619,870.068837 L492.710749,870.077405 C504.667085,870.194502 512.567011,870.273042 516.471967,870.273042 L519.949706,870.273042 L520.666972,866.870099 C528.11825,831.511196 531.238785,794.143086 534.259303,758.005918 C536.702579,728.766028 539.227298,698.532245 544.036694,670.014928 L544.665373,666.293539 L541.049039,665.202541 C524.499058,660.213082 505.624392,656.218944 489.260157,654.245437 L485.959591,653.845594 L441.83631,767.073768 L441.629132,767.696379 C436.196771,787.254376 427.342396,791.429871 419.469617,793.804648 C383.056229,804.7846 344.446751,804.496143 216.494807,803.540806 L195.262595,803.383725 L199.393303,796.864869 C239.493037,733.604119 278.415427,652.023456 323.486013,557.562163 C374.016108,451.655385 431.288787,331.61847 500.700691,218.468837 L501.616562,216.977997 L501.222209,215.268671 C497.114361,197.424285 491.55055,174.610431 484.949418,156.413326 L483.924957,153.588727 L207.59471,153.585871 C190.481775,152.993247 184.616483,152.394912 180.734389,151.999354 C177.490975,151.668056 175.153432,151.428151 168.935222,151.428151 L165.270308,151.428151 L164.70021,155.048151 C159.516464,188.032277 156.758849,228.947559 154.088391,268.51623 C151.680835,304.274975 149.194694,341.180411 144.943965,371.432758 L144.416732,375.184135 L148.07736,376.166604 C158.783481,379.035472 169.893958,380.973279 180.638658,382.846825 C186.245334,383.823583 192.043471,384.834612 197.614427,385.955598 L201.433653,386.723867 L247.633005,234.198344 C248.603171,230.386991 248.474578,227.04688 247.211504,224.092332 L245.158295,219.287086 L250.276315,218.21608 C253.269686,217.589184 259.685072,217.272166 286.429658,217.272166 C302.67673,217.272166 315.621807,217.472088 330.610092,217.703425 L330.710109,221.988877 L330.777264,217.704853 C348.447437,217.977602 368.475157,218.28748 399.124699,218.343172 L406.677423,218.357452 L402.7939,224.830612 C353.382569,307.200963 302.956778,412.984932 254.191272,515.287417 C198.983233,631.103141 146.84572,740.481405 97.1672002,816.087283 L95.9998571,817.868009 L96.7114077,819.87436 C99.3804369,827.379969 102.096617,835.298273 104.72421,842.955251 L104.86995,843.382226 C107.014603,849.632616 109.219267,856.058652 111.411072,862.301902 L117.416387,860.168458 L117.416387,869.19204 L331.700279,869.19204 Z" id="Combined-Shape"></path>
        </g>
    </g>
</svg>

<svg width="1024" height="1024" viewBox="0 0 1024 1024">
    <path d="M758.718 308.288h-252.18v34.272h252.18v122.688l169.53-142.604-169.53-142.604v128.248zm162.408 555.12l3.275-1.006.244-3.413c.753-10.557.75-22.754-.004-31.83l-.394-4.721-55.418 1.652-.329-4.058a25.65 25.65 0 0 1-.079-1.95c.75-31.72 1.48-121.327 1.48-155.424 0-60.333-27.361-124.802-104.153-124.802-59.111 0-101.52 33.617-135.206 66.504l-3.33 3.25 3.006 3.553c7.844 9.262 17.384 19.615 26.18 28.407l3.688 3.686 3.529-3.839c27.579-29.99 58.6-47.193 85.113-47.193 16.496 0 28.243 4.18 36.975 13.158 13.474 13.853 19.888 40.684 19.605 82.023l-.029 4.276-4.278-.02a1771.455 1771.455 0 0 1-41.773-.718l-.21-.003c-57.404 0-92.695 19.33-112.18 35.544-23.193 19.301-37.04 45.204-37.04 69.29 0 20.89 10.734 40.773 30.224 55.984 17.239 13.454 39.344 21.487 59.13 21.487 26.76 0 53.642-5.256 104.9-31.419l3.44-1.758 2.104 3.242c8.683 13.369 14.877 22.585 21.622 28.653l1.426 1.282h1.919c33.34 0 75.588-6.459 86.563-9.836zm-117.461-68.065l-78.597 28.711h-.758c-26.22 0-43.836-14.04-43.836-34.936 0-35.363 31.89-55.644 87.493-55.644 16.434 0 26.878.429 31.641.683l4.057.219v60.967zM331.7 869.192c71.244 0 129.145.57 160.25.877l.76.008c11.957.118 19.857.196 23.762.196h3.478l.717-3.403c7.451-35.359 10.572-72.727 13.592-108.864 2.444-29.24 4.968-59.474 9.778-87.991l.628-3.721-3.616-1.091c-16.55-4.99-35.425-8.984-51.789-10.958l-3.3-.4-44.124 113.229-.207.622c-5.432 19.558-14.287 23.734-22.16 26.109-36.413 10.98-75.022 10.691-202.974 9.736l-21.232-.157 4.13-6.52c40.1-63.26 79.022-144.84 124.093-239.302 50.53-105.907 107.803-225.944 177.215-339.093l.916-1.491-.395-1.71c-4.108-17.844-9.671-40.658-16.273-58.855l-1.024-2.824-276.33-.003c-17.113-.593-22.979-1.191-26.86-1.587-3.244-.33-5.582-.57-11.8-.57h-3.665l-.57 3.62c-5.184 32.983-7.941 73.899-10.612 113.467-2.407 35.759-4.893 72.664-9.144 102.917l-.527 3.751 3.66.983c10.706 2.868 21.817 4.806 32.562 6.68 5.606.977 11.404 1.988 16.975 3.109l3.82.768 46.199-152.526c.97-3.811.842-7.151-.421-10.106l-2.054-4.805 5.118-1.07c2.994-.628 9.41-.945 36.154-.945 16.247 0 29.192.2 44.18.431l.1 4.286.067-4.284c17.67.273 37.698.582 68.348.638l7.552.014-3.883 6.474c-49.411 82.37-99.837 188.154-148.603 290.456-55.208 115.816-107.345 225.194-157.024 300.8L96 817.868l.711 2.006c2.67 7.506 5.386 15.424 8.013 23.081l.146.427c2.145 6.25 4.35 12.677 6.541 18.92l6.005-2.134v9.024H331.7z" fill="#221F20" fill-rule="evenodd"/>
</svg>
